src/Vector.svg

<svg width="28" height="21" viewBox="0 0 28 21" fill="none" xmlns="http://www.w3.org/2000/svg">
<path fill-rule="evenodd" clip-rule="evenodd" d="M27.3848 0.64693C27.7787 1.06081 28 1.62208 28 2.20732C28 2.79255 27.7787 3.35382 27.3848 3.7677L11.636 20.3103C11.4279 20.5289 11.1808 20.7024 10.9089 20.8207C10.6369 20.9391 10.3454 21 10.0511 21C9.75671 21 9.46523 20.9391 9.19328 20.8207C8.92133 20.7024 8.67424 20.5289 8.46611 20.3103L0.641454 12.0927C0.440774 11.8891 0.280704 11.6456 0.170585 11.3763C0.0604664 11.107 0.00250367 10.8174 7.93321e-05 10.5244C-0.002345 10.2313 0.0508177 9.94069 0.156465 9.66946C0.262112 9.39822 0.418129 9.1518 0.615411 8.94457C0.812693 8.73734 1.04729 8.57346 1.30551 8.46249C1.56374 8.35152 1.84041 8.29568 2.1194 8.29822C2.39839 8.30077 2.6741 8.36165 2.93045 8.47732C3.1868 8.59299 3.41865 8.76113 3.61247 8.97193L10.0504 15.7343L24.4124 0.64693C24.6075 0.441837 24.8392 0.27914 25.0942 0.168137C25.3492 0.0571338 25.6226 0 25.8986 0C26.1746 0 26.448 0.0571338 26.703 0.168137C26.958 0.27914 27.1897 0.441837 27.3848 0.64693Z" fill="white"/>
</svg>

<svg xmlns="http://www.w3.org/2000/svg" width="28" height="21" fill="none"><path fill="#fff" fill-rule="evenodd" d="M27.385.647c.394.414.615.975.615 1.56 0 .586-.221 1.147-.615 1.56L11.636 20.31a2.237 2.237 0 0 1-.727.51 2.148 2.148 0 0 1-1.716 0 2.238 2.238 0 0 1-.727-.51L.641 12.093c-.2-.204-.36-.447-.47-.717A2.303 2.303 0 0 1 .156 9.67c.106-.27.262-.517.46-.724.197-.208.431-.372.69-.483a2.013 2.013 0 0 1 1.624.015c.257.116.489.284.682.495l6.438 6.762L24.412.647c.196-.205.427-.368.682-.479a2.014 2.014 0 0 1 1.609 0c.255.111.487.274.682.479Z" clip-rule="evenodd"/></svg>
